X:366
T:Untitled 48 Bar Polka
R:polka 48
M:2/2
L:1/8
K:Gmaj
Bc|d2 g2 f2 e2|dedc B2 AB|d2 A2 A2 GA|BcBA GABc|
d2 g2 f2 e2|dedc B2 AB|d2 A2 f2 ef|1 a2 g2 g2:|2 a2 g2 g4||
d2 d2 BdBd|g2 f2 e2 d2|c2 c2 AcAc|e2 e2 d4|
d2 d2 BdBd|g2 fg a2 ab|agfe dcBA|G2 Bd g4:||
[K:Cmaj] c2 Gc e4|e2 ce g4|gage f2 d2|dfed e2 c2|
c2 Gc e4|e2 ce g4|gage f2 ed|c2 e2 c4:||

